**harm	**harte	**timestamp	**phrase	**leadinstrument	**kern
*M4/4	*M4/4	*	*	*	*
*D:	*D:	*	*	*	*D:
1r;	N	0	.	r	1r;
=1	=1	=1	=1	=1	=1
*>A_intro	*>A_intro	*>A_intro	*>A_intro	*>A_intro	*>A_intro
1vi	B:min	0.209	newline	r	1B 1dd 1ff#
=2	=2	=2	=2	=2	=2
1I	D:maj	4.822	.	r	1D 1f# 1a
=3	=3	=3	=3	=3	=3
1vi	B:min	9.436	.	r	1B 1dd 1ff#
=4	=4	=4	=4	=4	=4
1I	D:maj	14.049	.	r	1D 1f# 1a
=5	=5	=5	=5	=5	=5
*>B_verse	*>B_verse	*>B_verse	*>B_verse	*>B_verse	*>B_verse
1I	D:maj	18.663	newline	voice	1D 1f# 1a
=6	=6	=6	=6	=6	=6
1vi	B:min	22.939	.	voice	1B 1dd 1ff#
=7	=7	=7	=7	=7	=7
1IV	G:maj	27.214	.	voice	1G 1b 1dd
=8	=8	=8	=8	=8	=8
1V7	A:7	31.49	.	voice	1A 1cc# 1ee 1gg
=9	=9	=9	=9	=9	=9
1I	D:maj	35.766	newline	voice	1D 1f# 1a
=10	=10	=10	=10	=10	=10
1vi	B:min	40.095	.	voice	1B 1dd 1ff#
=11	=11	=11	=11	=11	=11
1IV	G:maj	44.424	.	voice	1G 1b 1dd
=12	=12	=12	=12	=12	=12
1V7	A:7	48.753	.	voice	1A 1cc# 1ee 1gg
=13	=13	=13	=13	=13	=13
*>C_chorus	*>C_chorus	*>C_chorus	*>C_chorus	*>C_chorus	*>C_chorus
1I	D:maj	53.083	newline	voice	1D 1f# 1a
=14	=14	=14	=14	=14	=14
1vi	B:min	57.422	.	voice	1B 1dd 1ff#
=15	=15	=15	=15	=15	=15
1I	D:maj	61.761	.	voice	1D 1f# 1a
=16	=16	=16	=16	=16	=16
2vi	B:min	66.1	.	voice	2B 2dd 2ff#
2V	A:maj	68.27	.	voice	2A 2cc# 2ee
=17	=17	=17	=17	=17	=17
*>B2_verse	*>B2_verse	*>B2_verse	*>B2_verse	*>B2_verse	*>B2_verse
1I	D:maj	70.44	newline	voice	1D 1f# 1a
=18	=18	=18	=18	=18	=18
1vi	B:min	74.733	.	voice	1B 1dd 1ff#
=19	=19	=19	=19	=19	=19
1I	D:maj	79.026	.	voice	1D 1f# 1a
=20	=20	=20	=20	=20	=20
1vi	B:min	83.319	.	voice	1B 1dd 1ff#
=21	=21	=21	=21	=21	=21
1I	D:maj	87.612	newline	voice	1D 1f# 1a
=22	=22	=22	=22	=22	=22
1vi	B:min	91.976	.	voice	1B 1dd 1ff#
=23	=23	=23	=23	=23	=23
1I	D:maj	96.341	.	voice	1D 1f# 1a
=24	=24	=24	=24	=24	=24
1vi	B:min	100.706	.	voice	1B 1dd 1ff#
=25	=25	=25	=25	=25	=25
1IV	G:maj	105.071	.	voice	1G 1b 1dd
=26	=26	=26	=26	=26	=26
1V	A:maj	109.436	.	voice	1A 1cc# 1ee
=27	=27	=27	=27	=27	=27
*>C_chorus	*>C_chorus	*>C_chorus	*>C_chorus	*>C_chorus	*>C_chorus
1I	D:maj	113.8	newline	voice	1D 1f# 1a
=28	=28	=28	=28	=28	=28
1vi	B:min	118.155	.	voice	1B 1dd 1ff#
=29	=29	=29	=29	=29	=29
*>_fadeout	*>_fadeout	*>_fadeout	*>_fadeout	*>_fadeout	*>_fadeout
1I	D:maj	122.51	newline	voice	1D 1f# 1a
=30	=30	=30	=30	=30	=30
1vi	B:min	126.387	.	voice	1B 1dd 1ff#
1r;	N	130.264	.	r	1r;
1r;	N	134.165	.	r	1r;
*-	*-	*-	*-	*-	*-
!!!OTL: Wish Someone Would Care
!!!COC: Irma Thomas
!!!BillboardChartDate: 1964/04/25
!!!BillboardPeak: 17
!!!BillboardWeeksOnChart: 12
!!!SampleTargetRank: 34
!!!SampleActualRank: 32
!!!SampleID#: 0598
!!!RDF**harmony: **recip + pitch class of root + harmonic quality
!!!RDF**harte: Chris Harte's syntax, used by MIREX
!!!RDF**phrase: newline = linebreak in original McGill transcription
!!!RDF**timestamp: McGill audio timestamp in seconds
!!!RDF**leadinstrument: original McGill primary instrumentation annotation
!!!RDT: 2017/01/12/
!!!ENC: Nathaniel Condit-Schultz
!!!EST: Awating manual error checking and editing.
